X: 1159
T: An Cailin Rua
R: polka
M: 2/4
K: Gmajor
L: 1/16
d6cA|"t c"B6A2|G8|zA Bc d2ef|"t"g8|
"t c"a3g f(d3|d2) cA "t"BG3|1 "t"A4 G2E2|=F8:|2 "t"A4 G3G|G8||
B2c2d4|b6g2|"t"a2gf "t"g4|"t c"a3g f(d3|d2) cA "t"BG3|" c"A4 G2E2|=F8|
d6cA|"t c"B6A2|G8|zA Bc d2ef|"t"g8|
"t c"a3g f(d3|d2) cA "t"BG3|"t c"A4 G3G|G8||

